!!!COM: Schiørring, Niels
!!!CDT: 1743-1798
!!!OPR@@DA: Choral-Bog
!!!ONM: 11
!!!OTL@@DA: Den lyse Dag forgangen er
**kern	**fb	**kern	**kern	**kern	**kern	**kern	**kern	**kern
*part6	*part6	*part6	*part5	*part5	*part4	*part3	*part2	*part1
*staff8	*	*staff7	*staff6	*staff5	*staff4	*staff3	*staff2	*staff1
*clefF4	*	*clefC1	*clefF4	*clefC1	*clefF4	*clefC4	*clefC3	*clefC1
*mclefF4	*	*mclefG2	*mclefF4	*mclefG2	*mclefF4	*mclefGv2	*mclefG2	*mclefG2
*k[b-]	*	*k[b-]	*k[b-]	*k[b-]	*k[b-]	*k[b-]	*k[b-]	*k[b-]
*F:	*	*F:	*F:	*F:	*F:	*F:	*F:	*F:
*M3/2	*	*M3/2	*M3/2	*M3/2	*M3/2	*M3/2	*M3/2	*M3/2
*	*	*	*^	*^	*	*	*	*
=1	=1	=1	=1	=1	=1	=1	=1	=1	=1	=1
2G	.	2g	2G	2B-	2g	2d	2G	2B-	2d	2g
=2	=2	=2	=2	=2	=2	=2	=2	=2	=2	=2
*	*	*	*	*	*	*^	*	*	*	*
1B-	6	(2.g	1B-	1d	2.g	2.ryy	1d\	1B-	1d	1g	(2.g
.	.	4a)	.	.	4a	4ryy	.	.	.	.	4a)
*	*	*	*v	*v	*	*	*	*	*	*	*
2G	.	2b-	2G	2b-	2d	[2g\	2G	2d	[2g	2b-
=3	=3	=3	=3	=3	=3	=3	=3	=3	=3	=3
2D	4	1a	2D	1a	1d	2g\]	(2D	1d	(2g]	1a
2C	#4|	.	2C	.	.	2f#X\	2C)	.	2f#X)	.
[2BB-	6	2g	[2BB-	2g	2d	2g\	[2BB-	2d	2g	2g
=4	=4	=4	=4	=4	=4	=4	=4	=4	=4	=4
2BB-]	6	1dd	2BB-]	1dd	2d	2g\	(2BB-]	(2d	(2g	1dd
2GG	6 5	.	2GG	.	1e	2b-\	2GG)	2e)	2b-)	.
2AA	#	2cc#X	2AA	2cc#X	.	2a\	2AA	2e	2a	2cc#X
=5	=5	=5	=5	=5	=5	=5	=5	=5	=5	=5
1D	.	1dd	1D	1dd	1f	1a\	1D	1f	1a	1dd
*	*	*	*^	*	*	*	*	*	*	*
2F#X	5	2ccni	2F#X	2d	2ccni	2%7ryy	[2a\	2F#X	2d	[2a	2ccni
*	*	*	*	*	*	*v	*v	*	*	*	*
=6	=6	=6	=6	=6	=6	=6	=6	=6	=6	=6
1G	9	1b-	1G	1d	1b-	2a]	1G	1d	(2a]	1b-
.	8	.	.	.	.	2g	.	.	2g)	.
2B-	6	2g	2B-	2d	2g	[2g	2B-	2d	[2g	2g
=7	=7	=7	=7	=7	=7	=7	=7	=7	=7	=7
1A	7	1cc	1A	1c	1cc	2g]	1A	1c	(2g]	1cc
.	#6\	.	.	.	.	2f#X	.	.	2f#X)	.
2G	.	2b-	2G	2d	2b-	2g	2G	2d	2g	2b-
=8	=8	=8	=8	=8	=8	=8	=8	=8	=8	=8
*	*	*	*	*	*	*^	*	*	*	*
1D	#	1a	1D	1d	1a	1ryy	1f#X\	1D	1d	1f#X	1a
*	*	*	*v	*v	*	*	*	*	*	*	*
2D	.	2a	2D	2a	2d	2f#\	2D	2d	2f#	2a
=9	=9	=9	=9	=9	=9	=9	=9	=9	=9	=9
*	*	*	*^	*	*	*	*	*	*	*
1BB-	6	1dd	1BB-	1G	1dd	1g	1d\	1BB-	1d	1g	1dd
*	*	*	*	*	*	*v	*v	*	*	*	*
2BBn	5	2dd	2BBn	2G	2dd	2fni	2BBn	2f	[2g	2dd
=10	=10	=10	=10	=10	=10	=10	=10	=10	=10	=10
*	*	*	*	*	*	*^	*	*	*	*
1C	n	(2.cc	1C	1G	2.cc	2.ryy	1e\	1C	1e	(1g]	(2.cc
.	.	4b-Xi)	.	.	4b-Xi	4ryy	.	.	.	.	4b-)
*	*	*	*v	*v	*	*	*	*	*	*	*
2D	#	2a	2D	2a	2d	2f#X\	2D	2d	2f#X)	2a
=11	=11	=11	=11	=11	=11	=11	=11	=11	=11	=11
2G	.	2b-	2G	2b-	2d	1g\	(2G	(2d	1g	(2b-
2E-X	6	2cc	2E-X	2cc	2e-X	.	2E-X)	2e-X)	.	2cc)
4BB-	6	2dd	4BB-	2dd	2d	2g\	(4BB-	2d	[2g	2dd
4C	.	.	4C	.	.	.	4C)	.	.	.
=12	=12	=12	=12	=12	=12	=12	=12	=12	=12	=12
1D	4	1a	1D	1a	1d	2g\	1D	1d	(2g]	1a
.	#	.	.	.	.	2f#X\	.	.	2f#X)	.
2C	#4|	2a	2C	2a	2d	2f#\	2C	2d	2f#	2a
=13	=13	=13	=13	=13	=13	=13	=13	=13	=13	=13
1BB-	6	(2.g	1BB-	2.g	1d	2.g\	1BB-	1d	1g	(2.g
.	.	4a)	.	4a	.	4f#X\	.	.	.	4a)
2GG	.	2b-	2GG	2b-	2d	2g\	2GG	2d	2g	2b-
=14	=14	=14	=14	=14	=14	=14	=14	=14	=14	=14
2AA	#	1a	2AA	1a	2c#X	2e\	(2AA	(2c#X	(2e	1a
2BBn	7	.	2BBn	.	2d	2d/	2BBn)	2d)	2d)	.
*	*	*	*^	*	*	*	*	*	*	*
2C#X	5	2g	2C#X	2A	2g	2ryy	2e\	2C#X	2A	2e	2g
=15	=15	=15	=15	=15	=15	=15	=15	=15	=15	=15	=15
2D	.	1f	2D	2A	1f	2ryy	1d\	(2D	(2A	1d	1f
*	*	*	*v	*v	*	*	*	*	*	*	*
2GG#X	7 5	.	2GG#X	.	2Bn	.	2GG#X)	2B)	.	.
*	*	*	*^	*	*	*	*	*	*	*
2AA	#	2e	2AA	4A	2e	4ryy	2c#X\	2AA	2A	2c#X	2e
.	.	.	.	4Gni	.	1..ryy	.	.	.	.	.
*	*	*	*	*	*	*v	*v	*	*	*	*
=16	=16	=16	=16	=16	=16	=16	=16	=16	=16	=16
1.D	.	1.d	1.D	1.F	1.d	1.A	1.D	1.F	1.d	1.d
*	*	*	*v	*v	*	*	*	*	*	*
=17	=17	=17	=17	=17	=17	=17	=17	=17	=17
*	*	*	*	*	*^	*	*	*	*
1E-X	7	(2.g	1E-X	2.g	2d	2.g\	1E-X	(2.G	(2d	(2.g
.	6	.	.	.	2c	.	.	.	2c)	.
.	2	4a)	.	4a	.	2f\	.	4F)	.	4a)
4D	6	4b-	4D	4b-	4d	.	4D	4F	4d	4b-
4C	6 -	4cc	4C	4cc	4e-X	4a\	4C	4A	4e-X	4cc
=18	=18	=18	=18	=18	=18	=18	=18	=18	=18	=18
2BB-	7	1dd	2BB-	1dd	2d	2a\	(2BB-	(2A	(2d	1dd
2BBn	5	.	2BBn	.	2f	2g\	2BBn)	2G)	2f)	.
2C	n	2cc	2C	2cc	2eni	2g\	2C	2G	2eni	2cc
=19	=19	=19	=19	=19	=19	=19	=19	=19	=19	=19
2C#X	7 5	1b-Xi	2C#X	1b-Xi	2e	1g\	2C#X	1G	(2e	1b-
*	*	*	*^	*	*	*	*	*	*	*
1D	6 4	.	1D	2d	.	2ryy	.	1D	.	2d)	.
.	5 #	2a	.	2cni	2a	2ryy	2f#X\	.	2F#X	2c	2a
*	*	*	*v	*v	*	*	*	*	*	*	*
=20	=20	=20	=20	=20	=20	=20	=20	=20	=20	=20
1GG	.	1g	1GG	1g	1B-	1d\	1GG	1G	1B-	1g
*	*	*	*	*v	*v	*v	*	*	*	*
==	==	==	==	==	==	==	==	==
*-	*-	*-	*-	*-	*-	*-	*-	*-
!!!system-decoration: {(s1,s2,s3,s4)}{(s5,s6)}{(s7,s8)}
!!!RDF**kern: i = editorial accidental
!!!RDF**kern: > = above
!!!RDF**kern: < = below
!!!AGN: chorale
!!!EED: Derek Remeš
!!!EED2: Victor Phan
!!!END: 2023/11/28
!!!ENC: Wolfgang Drescher
!!!EEV: 2023/12/08
!!!title: @{ONM}. @{OTL}
!!!verovio: mnumInterval 1